cg/list-tree.svg

<svg viewBox="0 0 24 24" fill="none" xmlns="http://www.w3.org/2000/svg" height="1em" width="1em">
  <path fill-rule="evenodd" clip-rule="evenodd" d="M9 1H1v8h8V6h2v14h4v3h8v-8h-8v3h-2V6h2v3h8V1h-8v3H9V1Zm12 2h-4v4h4V3Zm-4 14h4v4h-4v-4Z" fill="currentColor"/>
</svg>

<svg viewBox="0 0 24 24" fill="none" xmlns="http://www.w3.org/2000/svg" height="1em" width="1em">
  <path fill-rule="evenodd" clip-rule="evenodd" d="M9 1H1V9H9V6H11V20H15V23H23V15H15V18H13V6H15V9H23V1H15V4H9V1ZM21 3H17V7H21V3ZM17 17H21V21H17V17Z" fill="currentColor"/>
</svg>
